build/assets/img/partners/microsoft.svg

<svg width="184" height="40" viewBox="0 0 184 40" fill="none" xmlns="http://www.w3.org/2000/svg">
<g clip-path="url(#clip0_1_2220)">
<path d="M64.948 22.5855L63.8513 25.686H63.7599C63.5772 24.9869 63.2421 23.923 62.6937 22.6463L56.8143 7.90333H51.0566V31.4008H54.8646V16.9011C54.8646 15.9891 54.8646 14.9556 54.8341 13.6789C54.8037 13.0406 54.7427 12.5542 54.7123 12.1894H54.8037C54.9864 13.1014 55.1997 13.7701 55.352 14.1957L62.4195 31.34H65.1003L72.107 14.0437C72.2593 13.6485 72.4116 12.8582 72.5639 12.1894H72.6553C72.5639 13.9221 72.503 15.4724 72.4725 16.4147V31.3096H76.5242V7.84254H70.9798L64.948 22.5855ZM80.3626 14.4693H84.3229V31.3096H80.3626V14.4693ZM82.3732 7.35617C81.703 7.35617 81.1546 7.59935 80.6977 8.02492C80.2407 8.45049 79.997 8.99765 79.997 9.6664C79.997 10.3048 80.2407 10.8519 80.6977 11.2775C81.1546 11.7031 81.703 11.9158 82.3732 11.9158C83.0434 11.9158 83.6222 11.6727 84.0487 11.2775C84.5056 10.8519 84.7494 10.3048 84.7494 9.6664C84.7494 9.02805 84.5056 8.48089 84.0487 8.02492C83.6527 7.59935 83.0739 7.35617 82.3732 7.35617ZM98.3666 14.3173C97.6354 14.1653 96.8739 14.0741 96.1427 14.0741C94.3454 14.0741 92.7003 14.4693 91.3295 15.2596C89.9586 16.0499 88.8619 17.1443 88.1613 18.5122C87.4301 19.9105 87.0646 21.5215 87.0646 23.3758C87.0646 24.9869 87.4301 26.4156 88.1308 27.7227C88.8315 28.9994 89.8063 30.0329 91.1162 30.7321C92.3652 31.4312 93.8275 31.796 95.4725 31.796C97.3613 31.796 98.9758 31.4008 100.255 30.6713L100.286 30.6409V26.9931L100.133 27.1147C99.5546 27.5403 98.8844 27.9051 98.2142 28.1179C97.5136 28.361 96.8739 28.4826 96.3255 28.4826C94.7414 28.4826 93.4924 28.0267 92.609 27.0235C91.695 26.0508 91.2381 24.7133 91.2381 23.0414C91.2381 21.3088 91.695 19.9409 92.6394 18.9377C93.5838 17.9346 94.8328 17.4178 96.356 17.4178C97.6354 17.4178 98.9454 17.8434 100.133 18.6945L100.286 18.8161V14.9556L100.255 14.9252C99.7374 14.7124 99.1586 14.4693 98.3666 14.3173ZM111.435 14.1957C110.461 14.1957 109.547 14.4997 108.755 15.138C108.084 15.6852 107.627 16.4755 107.231 17.4178H107.201V14.4693H103.241V31.3096H107.201V22.7071C107.201 21.248 107.506 20.0321 108.176 19.1505C108.846 18.2386 109.699 17.7826 110.735 17.7826C111.1 17.7826 111.466 17.8738 111.923 17.9346C112.349 18.0562 112.654 18.1778 112.867 18.3298L113.02 18.4514V14.4997L112.928 14.4693C112.654 14.2869 112.106 14.1957 111.435 14.1957ZM122.22 14.1045C119.447 14.1045 117.224 14.9252 115.67 16.5363C114.086 18.1474 113.324 20.3664 113.324 23.163C113.324 25.7772 114.116 27.9051 115.639 29.4554C117.163 30.9753 119.234 31.7656 121.824 31.7656C124.535 31.7656 126.698 30.9449 128.251 29.3034C129.835 27.6619 130.597 25.4733 130.597 22.7679C130.597 20.0928 129.866 17.965 128.373 16.4147C126.941 14.8644 124.839 14.1045 122.22 14.1045ZM125.388 27.0539C124.657 27.9963 123.499 28.4522 122.067 28.4522C120.635 28.4522 119.478 27.9963 118.655 26.9931C117.833 26.0508 117.437 24.6829 117.437 22.9502C117.437 21.1568 117.863 19.7889 118.655 18.8161C119.478 17.8434 120.605 17.357 122.037 17.357C123.438 17.357 124.535 17.813 125.327 18.7553C126.119 19.6977 126.545 21.0656 126.545 22.859C126.484 24.6829 126.149 26.1116 125.388 27.0539ZM139.431 21.4607C138.182 20.944 137.39 20.5488 137.025 20.2144C136.72 19.9105 136.568 19.4849 136.568 18.9377C136.568 18.4818 136.751 18.0258 137.208 17.7218C137.665 17.4178 138.182 17.2659 138.944 17.2659C139.614 17.2659 140.315 17.3874 140.985 17.5698C141.655 17.7522 142.265 18.0258 142.752 18.3906L142.904 18.5122V14.8036L142.813 14.7732C142.356 14.5908 141.747 14.4085 141.016 14.2565C140.284 14.1349 139.614 14.0741 139.066 14.0741C137.177 14.0741 135.624 14.5301 134.405 15.5332C133.186 16.4755 132.608 17.7522 132.608 19.2417C132.608 20.0321 132.729 20.7312 133.004 21.3088C133.278 21.8863 133.674 22.4335 134.222 22.8894C134.771 23.315 135.563 23.8014 136.659 24.2573C137.573 24.6525 138.274 24.9565 138.7 25.1997C139.127 25.4429 139.401 25.7164 139.614 25.9292C139.767 26.1724 139.858 26.4764 139.858 26.8716C139.858 27.9963 139.005 28.5434 137.269 28.5434C136.598 28.5434 135.898 28.4218 135.075 28.1483C134.253 27.8747 133.491 27.4795 132.851 27.0235L132.699 26.902V30.7625L132.79 30.7929C133.369 31.0665 134.07 31.2488 134.923 31.4616C135.776 31.6136 136.537 31.7352 137.208 31.7352C139.249 31.7352 140.924 31.2792 142.112 30.2761C143.331 29.3034 143.971 28.0571 143.971 26.446C143.971 25.3213 143.666 24.3181 142.996 23.5582C142.112 22.8286 141.016 22.0687 139.431 21.4607ZM154.42 14.1045C151.647 14.1045 149.424 14.9252 147.87 16.5363C146.316 18.1474 145.524 20.3664 145.524 23.163C145.524 25.7772 146.316 27.9051 147.839 29.4554C149.363 30.9753 151.434 31.7656 154.024 31.7656C156.735 31.7656 158.898 30.9449 160.451 29.3034C162.035 27.6619 162.797 25.4733 162.797 22.7679C162.797 20.0928 162.066 17.965 160.573 16.4147C159.141 14.8644 157.039 14.1045 154.42 14.1045ZM157.557 27.0539C156.826 27.9963 155.669 28.4522 154.237 28.4522C152.775 28.4522 151.647 27.9963 150.825 26.9931C150.002 26.0508 149.606 24.6829 149.606 22.9502C149.606 21.1568 150.033 19.7889 150.825 18.8161C151.647 17.8434 152.775 17.357 154.206 17.357C155.577 17.357 156.704 17.813 157.496 18.7553C158.288 19.6977 158.715 21.0656 158.715 22.859C158.715 24.6829 158.319 26.1116 157.557 27.0539ZM183.969 17.7218V14.4693H179.978V9.48402L179.857 9.51442L176.079 10.6391L175.988 10.6695V14.4693H170.017V12.3414C170.017 11.3687 170.261 10.6087 170.687 10.1224C171.114 9.63601 171.753 9.39282 172.545 9.39282C173.094 9.39282 173.673 9.51442 174.312 9.788L174.465 9.87919V6.44424L174.373 6.41384C173.825 6.23145 173.094 6.10986 172.149 6.10986C170.961 6.10986 169.926 6.38344 168.981 6.83941C168.037 7.35617 167.336 8.05532 166.818 8.99765C166.3 9.90959 166.026 10.9431 166.026 12.1286V14.4693H163.254V17.6914H166.026V31.3096H170.017V17.7218H175.988V26.3852C175.988 29.9417 177.663 31.7352 181.014 31.7352C181.563 31.7352 182.141 31.644 182.69 31.5528C183.269 31.4312 183.695 31.2792 183.939 31.1576L183.969 31.1272V27.8747L183.817 27.9963C183.573 28.1483 183.36 28.2699 182.994 28.361C182.69 28.4522 182.416 28.4826 182.202 28.4826C181.41 28.4826 180.862 28.3003 180.466 27.8443C180.1 27.4187 179.918 26.7196 179.918 25.686V17.7218H183.969Z" fill="#4F4F4F"/>
<path d="M0 0H18.6742V18.6339H0V0Z" fill="#4F4F4F"/>
<path d="M20.623 0H39.2972V18.6339H20.623V0Z" fill="#4F4F4F"/>
<path d="M0 20.5793H18.6742V39.2132H0V20.5793Z" fill="#4F4F4F"/>
<path d="M20.623 20.5791H39.2972V39.213H20.623V20.5791Z" fill="#4F4F4F"/>
</g>
<defs>
<clipPath id="clip0_1_2220">
<rect width="184" height="39.2132" fill="white"/>
</clipPath>
</defs>
</svg>

<svg width="184" height="40" fill="none" xmlns="http://www.w3.org/2000/svg"><g clip-path="url(#clip0_1_2220)" fill="#4F4F4F"><path d="M64.948 22.585l-1.097 3.101h-.091c-.183-.7-.518-1.763-1.066-3.04l-5.88-14.743h-5.757v23.498h3.808V16.9c0-.912 0-1.945-.03-3.222-.031-.638-.092-1.125-.123-1.49h.092c.182.912.396 1.581.548 2.007L62.42 31.34h2.68l7.007-17.296c.152-.396.305-1.186.457-1.855h.091a219.066 219.066 0 00-.183 4.226V31.31h4.052V7.843H70.98l-6.032 14.742zm15.415-8.116h3.96v16.84h-3.96V14.47zm2.01-7.113c-.67 0-1.218.243-1.675.669-.457.425-.701.973-.701 1.641 0 .639.244 1.186.7 1.611.458.426 1.006.639 1.676.639.67 0 1.25-.243 1.676-.639.457-.425.7-.972.7-1.61 0-.639-.243-1.186-.7-1.642-.396-.426-.975-.669-1.676-.669zm15.994 6.961a11.069 11.069 0 00-2.224-.243c-1.798 0-3.443.395-4.814 1.186-1.37.79-2.467 1.884-3.168 3.252-.73 1.398-1.096 3.01-1.096 4.864 0 1.61.365 3.04 1.066 4.347.7 1.276 1.675 2.31 2.985 3.01 1.25.698 2.712 1.063 4.356 1.063 1.89 0 3.504-.395 4.783-1.125l.031-.03v-3.648l-.153.122c-.578.425-1.249.79-1.919 1.003-.7.243-1.34.365-1.888.365-1.585 0-2.834-.456-3.717-1.46-.914-.972-1.37-2.31-1.37-3.982 0-1.732.456-3.1 1.4-4.103.945-1.003 2.194-1.52 3.717-1.52 1.28 0 2.59.425 3.777 1.277l.153.121v-3.86l-.031-.03c-.518-.214-1.096-.457-1.888-.609zm13.068-.121c-.974 0-1.888.304-2.68.942-.671.547-1.128 1.338-1.524 2.28h-.03v-2.949h-3.96v16.84h3.96v-8.602c0-1.459.305-2.675.975-3.556.67-.912 1.523-1.368 2.559-1.368.365 0 .731.09 1.188.152.426.121.731.243.944.395l.153.121V14.5l-.092-.03c-.274-.183-.822-.274-1.493-.274zm10.785-.091c-2.773 0-4.996.82-6.55 2.431-1.584 1.611-2.346 3.83-2.346 6.627 0 2.614.792 4.742 2.315 6.292 1.524 1.52 3.595 2.31 6.185 2.31 2.711 0 4.874-.82 6.427-2.462 1.584-1.641 2.346-3.83 2.346-6.535 0-2.675-.731-4.803-2.224-6.353-1.432-1.55-3.534-2.31-6.153-2.31zm3.168 12.949c-.731.942-1.889 1.398-3.321 1.398-1.432 0-2.589-.456-3.412-1.459-.822-.942-1.218-2.31-1.218-4.043 0-1.793.426-3.161 1.218-4.134.823-.973 1.95-1.459 3.382-1.459 1.401 0 2.498.456 3.29 1.398.792.943 1.218 2.31 1.218 4.104-.061 1.824-.396 3.253-1.157 4.195zm14.043-5.593c-1.249-.517-2.041-.912-2.406-1.247-.305-.303-.457-.73-.457-1.276 0-.456.183-.912.64-1.216.457-.304.974-.456 1.736-.456.67 0 1.371.121 2.041.304.67.182 1.28.456 1.767.82l.152.122v-3.708l-.091-.03a11.01 11.01 0 00-1.797-.517 12.253 12.253 0 00-1.95-.183c-1.889 0-3.442.456-4.661 1.46-1.219.941-1.797 2.218-1.797 3.708 0 .79.121 1.49.396 2.067.274.577.67 1.124 1.218 1.58.549.426 1.341.912 2.437 1.368.914.395 1.615.7 2.041.943.427.243.701.516.914.73.153.242.244.546.244.942 0 1.124-.853 1.671-2.589 1.671-.671 0-1.371-.121-2.194-.395a8.495 8.495 0 01-2.224-1.125l-.152-.121v3.86l.091.03c.579.274 1.28.457 2.133.67.853.152 1.614.273 2.285.273 2.041 0 3.716-.456 4.904-1.459 1.219-.973 1.859-2.219 1.859-3.83 0-1.125-.305-2.128-.975-2.888-.884-.73-1.98-1.49-3.565-2.097zm14.989-7.356c-2.773 0-4.996.82-6.55 2.431-1.554 1.611-2.346 3.83-2.346 6.627 0 2.614.792 4.742 2.315 6.292 1.524 1.52 3.595 2.31 6.185 2.31 2.711 0 4.874-.82 6.427-2.462 1.584-1.641 2.346-3.83 2.346-6.535 0-2.675-.731-4.803-2.224-6.353-1.432-1.55-3.534-2.31-6.153-2.31zm3.137 12.949c-.731.942-1.888 1.398-3.32 1.398-1.462 0-2.59-.456-3.412-1.459-.823-.942-1.219-2.31-1.219-4.043 0-1.793.427-3.161 1.219-4.134.822-.973 1.95-1.459 3.381-1.459 1.371 0 2.498.456 3.29 1.398.792.943 1.219 2.31 1.219 4.104 0 1.824-.396 3.253-1.158 4.195zm26.412-9.332v-3.253h-3.991V9.484l-.121.03-3.778 1.125-.091.03v3.8h-5.971v-2.128c0-.972.244-1.732.67-2.219.427-.486 1.066-.73 1.858-.73.549 0 1.128.122 1.767.396l.153.091V6.444l-.092-.03c-.548-.183-1.279-.304-2.224-.304a7.148 7.148 0 00-3.168.73 5.281 5.281 0 00-2.163 2.158c-.518.912-.792 1.945-.792 3.13v2.341h-2.772v3.222h2.772V31.31h3.991V17.722h5.971v8.663c0 3.557 1.675 5.35 5.026 5.35.549 0 1.127-.091 1.676-.182.579-.122 1.005-.274 1.249-.395l.03-.03v-3.253l-.152.121a2.576 2.576 0 01-.823.365 2.787 2.787 0 01-.792.122c-.792 0-1.34-.183-1.736-.639-.366-.425-.548-1.124-.548-2.158v-7.964h4.051zM0 0h18.674v18.634H0V0zm20.623 0h18.674v18.634H20.623V0zM0 20.58h18.674v18.633H0V20.58zm20.623 0h18.674v18.633H20.623V20.579z"/></g><defs><clipPath id="clip0_1_2220"><path fill="#fff" d="M0 0h184v39.213H0z"/></clipPath></defs></svg>
